icons/influxdb.svg

<?xml version="1.0" encoding="UTF-8"?>
<svg width="256px" height="261px" viewBox="0 0 256 261" version="1.1" xmlns="http://www.w3.org/2000/svg" xmlns:xlink="http://www.w3.org/1999/xlink" preserveAspectRatio="xMidYMid">
    <g>
        <path d="M255.59672,156.506259 L230.750771,48.7630778 C229.35754,42.9579495 224.016822,36.920616 217.979489,35.2951801 L104.895589,0.464410265 C103.502359,-2.84217094e-14 101.876923,-2.84217094e-14 100.019282,-2.84217094e-14 C95.1429738,-2.84217094e-14 90.266666,1.85764106 86.783589,4.87630778 L5.74399781,80.3429758 C1.33210029,84.290463 -0.989951029,92.1854375 0.403279765,97.7583607 L26.8746649,213.164312 C28.2678956,218.96944 33.6086137,225.006773 39.6459471,226.632209 L145.531487,259.605338 C146.924718,260.069748 148.550154,260.069748 150.407795,260.069748 C155.284103,260.069748 160.160411,258.212107 163.643488,255.19344 L250.256002,174.61826 C254.6679,169.974157 256.989951,162.543593 255.59672,156.506259 Z M116.738051,26.0069748 L194.52677,49.9241035 C197.545437,50.852924 197.545437,52.2461548 194.52677,52.9427702 L153.658667,62.2309755 C150.64,63.159796 146.228103,61.7665652 144.138257,59.4445139 L115.809231,28.7934364 C113.254974,26.23918 113.719384,25.0781543 116.738051,26.0069748 Z M165.268924,165.330054 C166.197744,168.348721 164.107898,170.206362 161.089231,169.277541 L77.2631786,143.270567 C74.2445119,142.341746 73.5478965,139.78749 75.8699478,137.697643 L139.958564,78.0209245 C142.280616,75.6988732 144.834872,76.6276937 145.531487,79.6463604 L165.268924,165.330054 Z M27.10687,89.398976 L95.1429738,26.0069748 C97.4650251,23.6849235 100.948102,24.1493338 103.270153,26.23918 L137.404308,63.159796 C139.726359,65.4818473 139.261949,68.9649243 137.172103,71.2869756 L69.1359989,134.678977 C66.8139476,137.001028 63.3308706,136.536618 61.0088193,134.446772 L26.8746649,97.5261556 C24.5526135,94.9718991 24.7848187,91.256617 27.10687,89.398976 Z M43.5934344,189.711593 L25.7136392,110.761848 C24.7848187,107.743181 26.1780495,107.046566 28.2678956,109.368617 L56.5969218,140.019695 C58.9189731,142.341746 59.6155885,146.753644 58.9189731,149.77231 L46.6121011,189.711593 C45.6832806,192.962465 44.2900498,192.962465 43.5934344,189.711593 Z M143.209436,236.15262 L54.2748705,208.520209 C51.2562038,207.591388 49.3985627,204.340516 50.3273832,201.089645 L65.1885117,153.255387 C66.1173322,150.236721 69.3682041,148.37908 72.6190759,149.3079 L161.553642,176.708106 C164.572308,177.636926 166.429949,180.887798 165.501129,184.13867 L150.64,231.972927 C149.478975,234.991594 146.460308,236.849235 143.209436,236.15262 Z M222.159181,171.367388 L162.714667,226.632209 C160.392616,228.954261 159.23159,228.02544 160.160411,225.006773 L172.467283,185.06749 C173.396103,182.048824 176.646975,178.797952 179.897847,178.333542 L220.76595,169.045336 C223.784617,167.884311 224.249027,169.277541 222.159181,171.367388 Z M228.660925,159.292721 L179.665642,170.438567 C176.646975,171.367388 173.396103,169.277541 172.699488,166.258875 L151.801026,75.6988732 C150.872206,72.6802064 152.962052,69.4293346 155.980718,68.7327192 L204.976001,57.5868728 C207.994668,56.6580523 211.24554,58.7478985 211.942155,61.7665652 L232.840617,152.326567 C233.537233,155.809644 231.679592,158.828311 228.660925,159.292721 Z" fill="#292933"></path>
    </g>
</svg>

<svg xmlns="http://www.w3.org/2000/svg" viewBox="0 0 256 260.07">
  <path fill="#292933" d="M255.597 156.506 230.75 48.763c-1.393-5.805-6.734-11.842-12.772-13.468L104.896.465C103.502 0 101.876 0 100.019 0c-4.876 0-9.752 1.858-13.235 4.876L5.744 80.343C1.332 84.29-.99 92.185.404 97.758l26.47 115.406c1.394 5.805 6.735 11.843 12.772 13.468l105.885 32.973c1.394.465 3.02.465 4.877.465 4.876 0 9.752-1.858 13.235-4.877l86.613-80.575c4.412-4.644 6.734-12.074 5.34-18.112zM116.738 26.007l77.789 23.917c3.018.929 3.018 2.322 0 3.019l-40.868 9.288c-3.019.929-7.43-.464-9.52-2.786l-28.33-30.652c-2.554-2.554-2.09-3.715.93-2.786zm48.53 139.323c.93 3.019-1.16 4.876-4.179 3.948L77.263 143.27c-3.018-.93-3.715-3.484-1.393-5.573l64.089-59.677c2.322-2.322 4.876-1.393 5.572 1.625zM27.108 89.399l68.036-63.392c2.322-2.322 5.805-1.858 8.127.232l34.134 36.92c2.322 2.323 1.858 5.806-.232 8.128l-68.036 63.392c-2.322 2.322-5.805 1.858-8.127-.232l-34.134-36.92c-2.322-2.555-2.09-6.27.232-8.128zm16.486 100.313-17.88-78.95c-.928-3.019.465-3.715 2.555-1.393l28.329 30.65c2.322 2.323 3.019 6.735 2.322 9.753l-12.307 39.94c-.929 3.25-2.322 3.25-3.019 0zm99.616 46.44L54.275 208.52c-3.019-.929-4.876-4.18-3.948-7.43l14.862-47.835c.928-3.018 4.18-4.876 7.43-3.947l88.935 27.4c3.018.929 4.876 4.18 3.947 7.43l-14.861 47.835c-1.161 3.019-4.18 4.876-7.43 4.18zm78.95-64.785-59.444 55.265c-2.322 2.322-3.483 1.393-2.555-1.625l12.307-39.94c.93-3.018 4.18-6.27 7.43-6.733l40.869-9.289c3.019-1.16 3.483.233 1.393 2.322zm6.502-12.074-48.995 11.146c-3.019.928-6.27-1.161-6.967-4.18l-20.898-90.56c-.929-3.019 1.161-6.27 4.18-6.966l48.995-11.146c3.019-.929 6.27 1.16 6.966 4.18l20.899 90.56c.696 3.483-1.161 6.501-4.18 6.966z"/>
</svg>
